source/presentation/public/images/icons/types/fairy.svg

<svg width="1em" height="1em" viewBox="0 0 35 35" fill="none" xmlns="http://www.w3.org/2000/svg">
<circle cx="17.5" cy="17.5" r="17.5" fill="#E14C89"/>
<path d="M17.1514 21.995C17.1514 21.995 16.5877 16.6791 14.5771 14.1558C13.1071 12.3108 9.73139 10.5377 9.73139 10.5377C9.73139 10.5377 13.2393 10.9778 14.88 9.78391C16.3546 8.71087 17.1514 5.71356 17.1514 5.71356C17.1514 5.71356 17.7376 8.68012 19.12 9.78391C20.7511 11.0862 24.4201 10.5377 24.4201 10.5377C24.4201 10.5377 21.0293 12.299 19.5743 14.1558C17.5954 16.6813 17.1514 21.995 17.1514 21.995Z" fill="black"/>
<path d="M4.12847 14.1558C3.3855 16.954 4.12846 20.3367 4.73419 21.5427C5.33992 22.7487 7.3032 25.9241 9.8828 27.7236C12.0772 29.2544 16.2429 30.2864 16.2429 30.2864C16.2429 30.2864 16.2055 26.3593 14.88 24.407C13.9173 22.9892 11.5485 21.5427 11.5485 21.5427C11.5485 21.5427 8.84521 20.3965 7.76279 18.9799C6.39943 17.1956 6.37093 15.6436 6.39992 13.402C6.42412 11.5311 7.45993 8.72864 7.45993 8.72864C7.45993 8.72864 4.76607 11.7544 4.12847 14.1558Z" fill="black"/>
<path d="M29.8716 14.1558C30.6145 16.954 29.8716 20.3367 29.2658 21.5427C28.6601 22.7487 26.6968 25.9241 24.1172 27.7236C21.9228 29.2544 17.7572 30.2864 17.7572 30.2864C17.7572 30.2864 17.7945 26.3593 19.12 24.407C20.0827 22.9892 22.4515 21.5427 22.4515 21.5427C22.4515 21.5427 25.1548 20.3965 26.2372 18.9799C27.6006 17.1956 27.6291 15.6436 27.6001 13.402C27.5759 11.5311 26.5401 8.72864 26.5401 8.72864C26.5401 8.72864 29.234 11.7544 29.8716 14.1558Z" fill="black"/>
</svg>

<svg width="1em" height="1em" viewBox="0 0 35 35" xmlns="http://www.w3.org/2000/svg">
<circle cx="17.5" cy="17.5" r="17.5" fill="#E14C89"/>
<path d="m17.151 21.995s-0.5637-5.3159-2.5743-7.8392c-1.47-1.845-4.8457-3.6181-4.8457-3.6181s3.5079 0.4401 5.1486-0.75379c1.4746-1.073 2.2714-4.0704 2.2714-4.0704s0.5862 2.9666 1.9686 4.0704c1.6311 1.3023 5.3001 0.75379 5.3001 0.75379s-3.3908 1.7613-4.8458 3.6181c-1.9789 2.5255-2.4229 7.8392-2.4229 7.8392z"/>
<path d="m4.1285 14.156c-0.74297 2.7982-1e-5 6.1809 0.60572 7.3869s2.569 4.3814 5.1486 6.1809c2.1944 1.5308 6.3601 2.5628 6.3601 2.5628s-0.0374-3.9271-1.3629-5.8794c-0.9627-1.4178-3.3315-2.8643-3.3315-2.8643s-2.7033-1.1462-3.7857-2.5628c-1.3634-1.7843-1.3919-3.3363-1.3629-5.5779 0.0242-1.8709 1.06-4.6734 1.06-4.6734s-2.6939 3.0258-3.3315 5.4272z"/>
<path d="m29.872 14.156c0.7429 2.7982 0 6.1809-0.6058 7.3869-0.6057 1.206-2.569 4.3814-5.1486 6.1809-2.1944 1.5308-6.36 2.5628-6.36 2.5628s0.0373-3.9271 1.3628-5.8794c0.9627-1.4178 3.3315-2.8643 3.3315-2.8643s2.7033-1.1462 3.7857-2.5628c1.3634-1.7843 1.3919-3.3363 1.3629-5.5779-0.0242-1.8709-1.06-4.6734-1.06-4.6734s2.6939 3.0258 3.3315 5.4272z"/>
</svg>
